public/images/hashed/4c555d6e42e13928f1327b9ec4e795c7.svg

<svg xmlns="http://www.w3.org/2000/svg" width="80" height="80"><defs><linearGradient id="a" x1="0%" x2="100%" y1="100%" y2="0%"><stop offset="0%" stop-color="#1B660F"/><stop offset="100%" stop-color="#6CAE3E"/></linearGradient></defs><g fill="none" fill-rule="evenodd"><path fill="url(#a)" d="M0 0h80v80H0z"/><path fill="#FFF" d="M25 21c1.654 0 3 1.346 3 3s-1.346 3-3 3-3-1.346-3-3 1.346-3 3-3Zm0 8a4.965 4.965 0 0 0 2.74-.826L49.653 51H47v2h5a1 1 0 0 0 1-1v-5h-2v2.514L29.16 26.765c.529-.793.84-1.743.84-2.765 0-2.757-2.243-5-5-5s-5 2.243-5 5 2.243 5 5 5Zm26 15h2v-5h-2v5Zm0-8h2v-5h-2v5ZM39 53h5v-2h-5v2Zm-8 0h5v-2h-5v2Zm-14-1c0-1.654 1.346-3 3-3s3 1.346 3 3-1.346 3-3 3-3-1.346-3-3Zm35-29c-1.654 0-3-1.346-3-3s1.346-3 3-3 3 1.346 3 3-1.346 3-3 3Zm4.572-.993A4.946 4.946 0 0 0 57 20c0-2.757-2.243-5-5-5s-5 2.243-5 5a5.009 5.009 0 0 0 4 4.899V28h2v-3.101a4.974 4.974 0 0 0 2.405-1.259C60.183 27.875 63 34.111 63 40.584 63 52.944 52.875 63 40.43 63c-6.467 0-12.514-2.752-16.79-7.595A4.964 4.964 0 0 0 24.898 53H28v-2h-3.102A5.007 5.007 0 0 0 20 47c-2.757 0-5 2.243-5 5s2.243 5 5 5c.715 0 1.392-.156 2.008-.428C26.67 61.941 33.314 65 40.43 65 53.978 65 65 54.047 65 40.584c0-7.112-3.131-13.963-8.428-18.577Z"/></g></svg>

<?xml version="1.0" encoding="UTF-8"?>
<svg width="80px" height="80px" viewBox="0 0 80 80" version="1.1" xmlns="http://www.w3.org/2000/svg" xmlns:xlink="http://www.w3.org/1999/xlink">
    <!-- Generator: Sketch 64 (93537) - https://sketch.com -->
    <title>Icon-Architecture/64/Arch_AWS-IoT-Greengrass-Core_64</title>
    <desc>Created with Sketch.</desc>
    <defs>
        <linearGradient x1="0%" y1="100%" x2="100%" y2="0%" id="linearGradient-1">
            <stop stop-color="#1B660F" offset="0%"></stop>
            <stop stop-color="#6CAE3E" offset="100%"></stop>
        </linearGradient>
    </defs>
    <g id="Icon-Architecture/64/Arch_AWS-IoT-Greengrass-Core_64" stroke="none" stroke-width="1" fill="none" fill-rule="evenodd">
        <g id="Icon-Architecture-BG/64/Internet-of-Things" fill="url(#linearGradient-1)">
            <rect id="Rectangle" x="0" y="0" width="80" height="80"></rect>
        </g>
        <path d="M25,21 C26.654,21 28,22.346 28,24 C28,25.654 26.654,27 25,27 C23.346,27 22,25.654 22,24 C22,22.346 23.346,21 25,21 L25,21 Z M25,29 C26.012,29 26.952,28.693 27.74,28.174 L49.653,51 L47,51 L47,53 L52,53 C52.553,53 53,52.552 53,52 L53,47 L51,47 L51,49.514 L29.16,26.765 C29.689,25.972 30,25.022 30,24 C30,21.243 27.757,19 25,19 C22.243,19 20,21.243 20,24 C20,26.757 22.243,29 25,29 L25,29 Z M51,44 L53,44 L53,39 L51,39 L51,44 Z M51,36 L53,36 L53,31 L51,31 L51,36 Z M39,53 L44,53 L44,51 L39,51 L39,53 Z M31,53 L36,53 L36,51 L31,51 L31,53 Z M17,52 C17,50.346 18.346,49 20,49 C21.654,49 23,50.346 23,52 C23,53.654 21.654,55 20,55 C18.346,55 17,53.654 17,52 L17,52 Z M52,23 C50.346,23 49,21.654 49,20 C49,18.346 50.346,17 52,17 C53.654,17 55,18.346 55,20 C55,21.654 53.654,23 52,23 L52,23 Z M56.572,22.007 C56.844,21.392 57,20.715 57,20 C57,17.243 54.757,15 52,15 C49.243,15 47,17.243 47,20 C47,22.415 48.721,24.434 51,24.899 L51,28 L53,28 L53,24.899 C53.922,24.711 54.743,24.26 55.405,23.64 C60.183,27.875 63,34.111 63,40.584 C63,52.944 52.875,63 40.43,63 C33.963,63 27.916,60.248 23.64,55.405 C24.26,54.743 24.711,53.922 24.898,53 L28,53 L28,51 L24.898,51 C24.435,48.721 22.414,47 20,47 C17.243,47 15,49.243 15,52 C15,54.757 17.243,57 20,57 C20.715,57 21.392,56.844 22.008,56.572 C26.67,61.941 33.314,65 40.43,65 C53.978,65 65,54.047 65,40.584 C65,33.472 61.869,26.621 56.572,22.007 L56.572,22.007 Z" id="AWS-IoT-Greengrass-Core_Icon_64_Squid" fill="#FFFFFF"></path>
    </g>
</svg>
